brandFactory_export/2.Regular/Consulta canjes puntos Movistar_2Regular.svg

<?xml version="1.0" encoding="UTF-8"?>
<svg width="24px" height="24px" viewBox="0 0 24 24" version="1.1" xmlns="http://www.w3.org/2000/svg" xmlns:xlink="http://www.w3.org/1999/xlink">
    <title>2.Regular/Consulta canjes puntos Movistar_2Regular</title>
    <g id="Symbols" stroke="none" stroke-width="1" fill="none" fill-rule="evenodd">
        <g id="2.Regular/Consulta-canjes-puntos-Movistar_2Regular" fill="#5CB615" fill-rule="nonzero">
            <path d="M16.1008403,2.86722689 C19.4789747,6.35454048 19.6299151,11.8020983 16.5536616,15.4645855 L23.3983193,22.3092437 C23.6605042,22.5714286 23.6605042,22.9983193 23.3983193,23.2605042 C23.2672269,23.3882353 23.0991597,23.4588235 22.9210084,23.4588235 C22.7428571,23.4588235 22.5714286,23.3882353 22.4470588,23.2605042 L15.611504,16.4245295 C13.9083766,17.9083833 11.7186511,18.7321726 9.44537815,18.7260843 C4.24537815,18.7260843 0.0302521008,14.5109244 0.0302521008,9.31092437 C0.0302521008,6.81344538 1.02184874,4.42016807 2.78655462,2.65210084 C6.52436975,-0.964705882 12.4840336,-0.867226891 16.1008403,2.86722689 Z M9.44537815,1.24029658 C4.98823529,1.24029658 1.37478992,4.85378151 1.37478992,9.31092437 C1.37478992,11.4521008 2.22521008,13.502521 3.73781513,15.0184874 C6.90084034,18.1579832 12.0134454,18.1378151 15.1529412,14.9747899 C18.2756303,11.8285714 18.2756303,6.75294118 15.1529412,3.60672269 C13.6403361,2.08403361 11.5865546,1.23361345 9.44537815,1.24029658 Z M9.6302521,3.94285714 C9.88235294,3.94285714 10.087395,4.14789916 10.087395,4.4 L10.0875149,4.73065238 C10.6953054,4.80042708 11.2579329,4.98430511 11.7109244,5.26386555 C12.0268908,5.45882353 12.0739496,5.71092437 12.0739496,5.84537815 C12.0739496,6.18487395 11.7983193,6.4605042 11.4588235,6.4605042 C11.3310924,6.45714286 11.2067227,6.42016807 11.092437,6.35966387 L11.0823529,6.35630252 C10.7446622,6.17249614 10.4192021,6.05120258 10.0878269,5.98723727 L10.0872521,8.40969503 L10.1936506,8.42521284 C12.121883,8.74351312 12.5344538,9.88271309 12.5344538,10.8 C12.5344538,11.5596639 12.2554622,12.205042 11.7277311,12.6621849 C11.3183644,13.0171421 10.7572188,13.2442855 10.0889357,13.3297608 L10.087395,13.9865546 C10.0840336,14.2386555 9.88235294,14.4403361 9.6302521,14.4403361 C9.37815126,14.4403361 9.17647059,14.2352941 9.17647059,13.9865546 L9.17699315,13.3569913 C8.35465596,13.299764 7.56104275,13.0242581 6.88067227,12.5546218 C6.6789916,12.4134454 6.57815126,12.2252101 6.57815126,11.9966387 C6.58151261,11.6470588 6.86722689,11.3680672 7.21680672,11.3714286 C7.36470588,11.3747899 7.50588235,11.4218487 7.62689076,11.502521 C8.14203266,11.8441414 8.66154841,12.0501726 9.17661811,12.1170866 L9.1762521,9.55969503 L9.07070047,9.5445986 C7.17606757,9.22743526 6.7697479,8.10444178 6.7697479,7.20336134 C6.7697479,5.79458761 7.70320662,4.84531832 9.1762116,4.71463013 L9.17647059,4.4 C9.17647059,4.14789916 9.38151261,3.94285714 9.6302521,3.94285714 Z M10.0894277,9.69642744 L10.0889916,12.0924105 C10.8319084,11.949009 11.2739496,11.4973271 11.2739496,10.8436975 C11.2739496,10.3779463 11.1201434,9.92015061 10.0894277,9.69642744 Z M8.03361345,7.14957983 C8.03361345,7.58293517 8.18039031,8.04512169 9.17522243,8.26997759 L9.1762294,5.95433158 C8.45403691,6.05272248 8.03361345,6.4832275 8.03361345,7.14957983 Z" id="Consulta-canjes-puntos-Movistar_2Regular"></path>
        </g>
    </g>
</svg>

<svg width="24" height="24" viewBox="0 0 24 24" xmlns="http://www.w3.org/2000/svg"><path d="M16.1 2.867a9.414 9.414 0 01.454 12.598l6.844 6.844a.674.674 0 01-.95.952l-6.836-6.836a9.35 9.35 0 01-6.167 2.301A9.415 9.415 0 012.787 2.652a9.418 9.418 0 0113.314.215zM9.446 1.24a8.07 8.07 0 00-5.707 13.778 8.073 8.073 0 0011.415-.043 8.069 8.069 0 000-11.368A8.006 8.006 0 009.445 1.24zm.185 2.703c.252 0 .457.205.457.457v.33c.608.07 1.17.254 1.624.534.316.195.363.447.363.581 0 .34-.276.616-.615.616a.832.832 0 01-.367-.101l-.01-.004a3.422 3.422 0 00-.994-.369V8.41l.106.015c1.928.319 2.34 1.458 2.34 2.375 0 .76-.279 1.405-.806 1.862-.41.355-.97.582-1.64.668v.657a.457.457 0 01-.458.453.454.454 0 01-.454-.453l.001-.63a4.604 4.604 0 01-2.296-.802.654.654 0 01-.303-.558.631.631 0 01.639-.626.77.77 0 01.41.132c.515.341 1.035.547 1.55.614V9.56l-.106-.015C7.176 9.227 6.77 8.105 6.77 7.203c0-1.408.933-2.358 2.406-2.488V4.4c0-.252.206-.457.454-.457zm.46 5.753l-.001 2.396c.743-.143 1.185-.595 1.185-1.248 0-.466-.154-.924-1.185-1.148zM8.033 7.15c0 .433.146.895 1.141 1.12l.001-2.316c-.722.099-1.142.53-1.142 1.196z" fill="#5CB615" fill-rule="nonzero"/></svg>
